X: 29679
T: Not Far From Home
R: reel
M: 4/4
K: Gmajor
|:BA|GBDE ~G2GB|AGAB AGED|GBDE G2GB|BA^GA edBA|
GBDE ~G2GB|AGAB AGED|G~B3 dBge|dBGA G2:|
|:GA|Beed ~g2ga|=f3a gede|B2dB eBdB|A2AB AGED|
Beed g2ga|=f~a3 gede|B~G3 Bdgd|dBAB G2:|

